X: 41015
T: Trip To Herve's, The
R: reel
M: 4/4
K: Dmajor
FAAF ABde|faaf dafd|B2dB AFDE|FEED E2DE|
FAAF ABde|f2af dafd|B(3BBBd AFEG|1 F(3FFFE DBAG:|2 F(3FFFE DEFG||
AB(3BBB d2BA|EFFE FGFE|DEFG A2DE|FGA2 FGAF|
AB(3BBB d2BA|EFFE FGFE|DEFG ABAG|FGEG FDEF|
GABc d2BA|EFFE FGFE|DEFG A2DE|FGA2 FGA2|
B2FA2EF2|DEED EFGA|B2FA2EF2|DEED EFGA||

